X: 29658
T: Northside, The
R: jig
M: 6/8
K: Gmixolydian
G2F|:DGG GAG|FDE FDC|DGG ABc|dgg fdc|
BAB GAG|FDE F2d|cAG FGA|1 BGG G2F:|2 BGG G2d||
|:dgg def|cAF FGA|Ggg def|edc de^f|
g^fg BAB|{c}BAG FGA|_BA_B cAF|1 GAG G2d:|2 GAG G2F||

